www/assets/icons/keyboard_hide.svg

<svg xmlns="http://www.w3.org/2000/svg" width="24" height="24" viewBox="0 0 24 24" fill='currentColor'><path d="M20 2H4c-1.1 0-1.99.9-1.99 2L2 14c0 1.1.9 2 2 2h16c1.1 0 2-.9 2-2V4c0-1.1-.9-2-2-2m-9 3h2v2h-2zm0 3h2v2h-2zM8 5h2v2H8zm0 3h2v2H8zm-1 2H5V8h2zm0-3H5V5h2zm9 7H8v-2h8zm0-4h-2V8h2zm0-3h-2V5h2zm3 3h-2V8h2zm0-3h-2V5h2zm-7 15 4-4H8z"/></svg>

<svg width="24" height="24" viewBox="0 0 24 24" xmlns="http://www.w3.org/2000/svg" fill='currentColor'><path d="M20 2H4C2.9 2 2.01 2.9 2.01 4L2 14C2 15.1 2.9 16 4 16H20C21.1 16 22 15.1 22 14V4C22 2.9 21.1 2 20 2ZM11 5H13V7H11V5ZM11 8H13V10H11V8ZM8 5H10V7H8V5ZM8 8H10V10H8V8ZM7 10H5V8H7V10ZM7 7H5V5H7V7ZM16 14H8V12H16V14ZM16 10H14V8H16V10ZM16 7H14V5H16V7ZM19 10H17V8H19V10ZM19 7H17V5H19V7ZM12 22L16 18H8L12 22Z"/></svg>
